svgs/signal.svg

<svg width="192" height="192" viewBox="0 0 192 192" fill="none" xmlns="http://www.w3.org/2000/svg">
<path fill-rule="evenodd" clip-rule="evenodd" d="M63 155.478C61.7981 154.81 60.6122 154.103 59.4441 153.357C58.1463 152.528 56.5794 152.23 55.0677 152.524L35.7078 156.292L39.4762 136.932C39.7704 135.421 39.4722 133.854 38.6431 132.556C38.525 132.371 38.408 132.186 38.2919 132H24.5354C25.3777 133.671 26.2823 135.32 27.2493 136.941L23.362 156.912C22.007 163.873 28.1274 169.993 35.0884 168.638L55.059 164.751C57.6426 166.292 60.2942 167.674 63 168.898V155.478Z" fill="black"/>
<path fill-rule="evenodd" clip-rule="evenodd" d="M152.569 39.4315C148.796 35.6589 144.736 32.3385 140.457 29.4727C137.703 27.6288 133.976 28.3661 132.133 31.1194C130.289 33.8728 131.026 37.5995 133.779 39.4434C137.412 41.8765 140.867 44.7 144.083 47.9167C147.3 51.1334 150.124 54.5875 152.557 58.2207C154.4 60.974 158.127 61.7113 160.881 59.8674C163.634 58.0236 164.371 54.2968 162.527 51.5435C159.662 47.2642 156.341 43.204 152.569 39.4315ZM109.274 29.3003C112.525 29.9438 115.682 27.8304 116.325 24.5797C116.969 21.3291 114.855 18.1723 111.605 17.5287C101.309 15.4904 90.6912 15.4904 80.3954 17.5287C77.1448 18.1723 75.0314 21.3291 75.6749 24.5797C76.3185 27.8304 79.4753 29.9438 82.7259 29.3003C91.483 27.5666 100.517 27.5666 109.274 29.3003ZM174.471 80.3954C173.828 77.1448 170.671 75.0314 167.42 75.6749C164.17 76.3185 162.056 79.4753 162.7 82.7259C164.433 91.483 164.433 100.517 162.7 109.274C162.056 112.525 164.17 115.682 167.42 116.325C170.671 116.969 173.828 114.855 174.471 111.605C176.51 101.309 176.51 90.6912 174.471 80.3954ZM162.527 140.457C164.371 137.703 163.634 133.976 160.881 132.133C158.127 130.289 154.4 131.026 152.557 133.779C150.124 137.412 147.3 140.867 144.083 144.083C141.319 146.847 138.38 149.321 135.304 151.505C132.602 153.424 131.967 157.169 133.885 159.871C135.804 162.573 139.549 163.208 142.251 161.29C145.874 158.717 149.327 155.81 152.569 152.569C156.341 148.796 159.662 144.736 162.527 140.457ZM58.2207 39.4434C60.974 37.5995 61.7113 33.8728 59.8674 31.1194C58.0236 28.3661 54.2968 27.6288 51.5435 29.4727C47.2642 32.3385 43.204 35.6589 39.4315 39.4315C36.1903 42.6726 33.2827 46.1263 30.7103 49.749C28.7918 52.4509 29.4269 56.1964 32.1288 58.1149C34.8306 60.0334 38.5762 59.3983 40.4946 56.6965C42.6794 53.6195 45.1529 50.6806 47.9167 47.9167C51.1334 44.7 54.5875 41.8765 58.2207 39.4434ZM30.6006 77.3254C31.5073 74.1381 29.6585 70.8193 26.4713 69.9126C23.284 69.0059 19.9652 70.8547 19.0585 74.0419C16.5767 82.766 15.6058 91.8255 16.1439 100.81C16.342 104.117 19.184 106.638 22.4918 106.44C25.7996 106.242 28.3205 103.4 28.1224 100.092C27.6645 92.4464 28.4913 84.74 30.6006 77.3254ZM117.958 172.941C121.145 172.035 122.994 168.716 122.087 165.529C121.181 162.341 117.862 160.493 114.675 161.399C107.26 163.509 99.5536 164.335 91.9078 163.878C88.6 163.679 85.7579 166.2 85.5598 169.508C85.3617 172.816 87.8826 175.658 91.1904 175.856C100.174 176.394 109.234 175.423 117.958 172.941ZM33.3087 122.39C32.0242 119.336 28.5067 117.901 25.452 119.185C22.3974 120.47 20.9624 123.987 22.2469 127.042C22.9503 128.715 23.7131 130.369 24.5353 132H38.2919C36.3583 128.907 34.6972 125.693 33.3087 122.39ZM69.6096 158.691C66.3075 157.303 63.093 155.642 60 153.708V167.465C61.6315 168.287 63.2853 169.05 64.9581 169.753C68.0127 171.038 71.5303 169.603 72.8147 166.548C74.0992 163.493 72.6642 159.976 69.6096 158.691Z" fill="black"/>
</svg>

<svg width="192" height="192" viewBox="0 0 192 192" fill="none" xmlns="http://www.w3.org/2000/svg"><path fill-rule="evenodd" clip-rule="evenodd" d="M63 155.478a67.799 67.799 0 0 1-3.556-2.121 6.001 6.001 0 0 0-4.376-.833l-19.36 3.768 3.768-19.36a6 6 0 0 0-.833-4.376c-.118-.185-.235-.37-.351-.556H24.535a79.45 79.45 0 0 0 2.714 4.941l-3.887 19.971c-1.355 6.961 4.765 13.081 11.726 11.726l19.971-3.887A79.315 79.315 0 0 0 63 168.898v-13.42Z" fill="#000"/><path fill-rule="evenodd" clip-rule="evenodd" d="M152.569 39.431a80.396 80.396 0 0 0-12.112-9.958 6 6 0 0 0-6.678 9.97 68.336 68.336 0 0 1 10.304 8.474 68.342 68.342 0 0 1 8.474 10.304 6 6 0 1 0 9.97-6.677 80.339 80.339 0 0 0-9.958-12.112Zm-43.295-10.13a6 6 0 1 0 2.331-11.772 80.41 80.41 0 0 0-31.21 0 6 6 0 0 0 2.33 11.771 68.405 68.405 0 0 1 26.549 0Zm65.197 51.094a6 6 0 1 0-11.771 2.33 68.432 68.432 0 0 1 0 26.549 6 6 0 1 0 11.771 2.331 80.382 80.382 0 0 0 0-31.21Zm-11.944 60.062a6 6 0 1 0-9.97-6.678 68.317 68.317 0 0 1-8.474 10.304 68.482 68.482 0 0 1-8.779 7.422 6 6 0 0 0 6.947 9.785 80.599 80.599 0 0 0 10.318-8.721 80.378 80.378 0 0 0 9.958-12.112ZM58.221 39.443a6 6 0 0 0-6.677-9.97 80.357 80.357 0 0 0-12.112 9.959 80.49 80.49 0 0 0-8.722 10.317 6 6 0 0 0 9.785 6.947 68.495 68.495 0 0 1 7.422-8.78 68.36 68.36 0 0 1 10.304-8.473ZM30.6 77.325a6 6 0 0 0-11.543-3.283 80.32 80.32 0 0 0-2.914 26.768 6 6 0 0 0 11.978-.718 68.318 68.318 0 0 1 2.479-22.767Zm87.357 95.616a5.999 5.999 0 0 0 4.129-7.412 6 6 0 0 0-7.412-4.13 68.328 68.328 0 0 1-22.767 2.479 6 6 0 1 0-.717 11.978 80.317 80.317 0 0 0 26.767-2.915Zm-84.65-50.551a6 6 0 0 0-11.061 4.652A79.244 79.244 0 0 0 24.535 132h13.757a67.388 67.388 0 0 1-4.983-9.61Zm36.302 36.301a67.337 67.337 0 0 1-9.61-4.983v13.757a79.312 79.312 0 0 0 4.958 2.288 6 6 0 0 0 4.651-11.062Z" fill="#000"/></svg>
